website/src/static/table/multi-levelhead.svg

<svg width="144" height="80" viewBox="0 0 144 80" fill="none" xmlns="http://www.w3.org/2000/svg">
<mask id="path-1-inside-1_764_60103" fill="white">
<path d="M72 40H144V80H72V40Z"/>
</mask>
<path d="M72 40H144V80H72V40Z" fill="#F4F5F9"/>
<path d="M84.5284 56.4062V55.2727H91.2827V56.4062H88.5597V64H87.2472V56.4062H84.5284ZM92.7752 64V55.2727H94.092V59.0653H98.4428V55.2727H99.7638V64H98.4428V60.1946H94.092V64H92.7752Z" fill="#191B23"/>
<path d="M144 80V81H145V80H144ZM143 40V80H145V40H143ZM144 79H72V81H144V79Z" fill="#E0E1E9" mask="url(#path-1-inside-1_764_60103)"/>
<mask id="path-4-inside-2_764_60103" fill="white">
<path d="M0 40H72V80H0V40Z"/>
</mask>
<path d="M0 40H72V80H0V40Z" fill="#F4F5F9"/>
<path d="M12.5284 56.4062V55.2727H19.2827V56.4062H16.5597V64H15.2472V56.4062H12.5284ZM20.7752 64V55.2727H22.092V59.0653H26.4428V55.2727H27.7638V64H26.4428V60.1946H22.092V64H20.7752Z" fill="#191B23"/>
<path d="M72 79H0V81H72V79Z" fill="#E0E1E9" mask="url(#path-4-inside-2_764_60103)"/>
<mask id="path-7-inside-3_764_60103" fill="white">
<path d="M0 0H144V40H0V0Z"/>
</mask>
<path d="M0 0H144V40H0V0Z" fill="#F4F5F9"/>
<path d="M20.2074 18.1108H18.8778C18.8267 17.8267 18.7315 17.5767 18.5923 17.3608C18.4531 17.1449 18.2827 16.9616 18.081 16.8111C17.8793 16.6605 17.6534 16.5469 17.4034 16.4702C17.1563 16.3935 16.8935 16.3551 16.6151 16.3551C16.1122 16.3551 15.6619 16.4815 15.2642 16.7344C14.8693 16.9872 14.5568 17.358 14.3267 17.8466C14.0994 18.3352 13.9858 18.9318 13.9858 19.6364C13.9858 20.3466 14.0994 20.946 14.3267 21.4347C14.5568 21.9233 14.8707 22.2926 15.2685 22.5426C15.6662 22.7926 16.1136 22.9176 16.6108 22.9176C16.8864 22.9176 17.1477 22.8807 17.3949 22.8068C17.6449 22.7301 17.8707 22.6179 18.0724 22.4702C18.2741 22.3224 18.4446 22.142 18.5838 21.929C18.7259 21.7131 18.8239 21.4659 18.8778 21.1875L20.2074 21.1918C20.1364 21.6207 19.9986 22.0156 19.794 22.3764C19.5923 22.7344 19.3324 23.044 19.0142 23.3054C18.6989 23.5639 18.3381 23.7642 17.9318 23.9062C17.5256 24.0483 17.0824 24.1193 16.6023 24.1193C15.8466 24.1193 15.1733 23.9403 14.5824 23.5824C13.9915 23.2216 13.5256 22.706 13.1847 22.0355C12.8466 21.3651 12.6776 20.5653 12.6776 19.6364C12.6776 18.7045 12.848 17.9048 13.1889 17.2372C13.5298 16.5668 13.9957 16.0526 14.5866 15.6946C15.1776 15.3338 15.8494 15.1534 16.6023 15.1534C17.0653 15.1534 17.4972 15.2202 17.8977 15.3537C18.3011 15.4844 18.6634 15.6776 18.9844 15.9332C19.3054 16.1861 19.571 16.4957 19.7812 16.8622C19.9915 17.2259 20.1335 17.642 20.2074 18.1108ZM24.4379 24.1321C23.8242 24.1321 23.2887 23.9915 22.8313 23.7102C22.3739 23.429 22.0188 23.0355 21.766 22.5298C21.5131 22.0241 21.3867 21.4332 21.3867 20.7571C21.3867 20.0781 21.5131 19.4844 21.766 18.9759C22.0188 18.4673 22.3739 18.0724 22.8313 17.7912C23.2887 17.5099 23.8242 17.3693 24.4379 17.3693C25.0515 17.3693 25.587 17.5099 26.0444 17.7912C26.5018 18.0724 26.8569 18.4673 27.1097 18.9759C27.3626 19.4844 27.489 20.0781 27.489 20.7571C27.489 21.4332 27.3626 22.0241 27.1097 22.5298C26.8569 23.0355 26.5018 23.429 26.0444 23.7102C25.587 23.9915 25.0515 24.1321 24.4379 24.1321ZM24.4421 23.0625C24.8398 23.0625 25.1694 22.9574 25.4308 22.7472C25.6921 22.5369 25.8853 22.2571 26.0103 21.9077C26.1381 21.5582 26.2021 21.1733 26.2021 20.7528C26.2021 20.3352 26.1381 19.9517 26.0103 19.6023C25.8853 19.25 25.6921 18.9673 25.4308 18.7543C25.1694 18.5412 24.8398 18.4347 24.4421 18.4347C24.0415 18.4347 23.7092 18.5412 23.445 18.7543C23.1836 18.9673 22.989 19.25 22.8612 19.6023C22.7362 19.9517 22.6737 20.3352 22.6737 20.7528C22.6737 21.1733 22.7362 21.5582 22.8612 21.9077C22.989 22.2571 23.1836 22.5369 23.445 22.7472C23.7092 22.9574 24.0415 23.0625 24.4421 23.0625ZM30.1854 15.2727V24H28.9112V15.2727H30.1854ZM37.8196 26.5909C37.2997 26.5909 36.8523 26.5227 36.4773 26.3864C36.1051 26.25 35.8011 26.0696 35.5653 25.8452C35.3295 25.6207 35.1534 25.375 35.0369 25.108L36.1321 24.6562C36.2088 24.7812 36.3111 24.9134 36.4389 25.0526C36.5696 25.1946 36.7457 25.3153 36.9673 25.4148C37.1918 25.5142 37.4801 25.5639 37.8324 25.5639C38.3153 25.5639 38.7145 25.446 39.0298 25.2102C39.3452 24.9773 39.5028 24.6051 39.5028 24.0938V22.8068H39.4219C39.3452 22.946 39.2344 23.1009 39.0895 23.2713C38.9474 23.4418 38.7514 23.5895 38.5014 23.7145C38.2514 23.8395 37.9261 23.902 37.5256 23.902C37.0085 23.902 36.5426 23.7812 36.1278 23.5398C35.7159 23.2955 35.3892 22.9361 35.1477 22.4616C34.9091 21.9844 34.7898 21.3977 34.7898 20.7017C34.7898 20.0057 34.9077 19.4091 35.1435 18.9119C35.3821 18.4148 35.7088 18.0341 36.1236 17.7699C36.5384 17.5028 37.0085 17.3693 37.5341 17.3693C37.9403 17.3693 38.2685 17.4375 38.5185 17.5739C38.7685 17.7074 38.9631 17.8636 39.1023 18.0426C39.2443 18.2216 39.3537 18.3793 39.4304 18.5156H39.5241V17.4545H40.7727V24.1449C40.7727 24.7074 40.642 25.169 40.3807 25.5298C40.1193 25.8906 39.7656 26.1577 39.3196 26.331C38.8764 26.5043 38.3764 26.5909 37.8196 26.5909ZM37.8068 22.8452C38.1733 22.8452 38.483 22.7599 38.7358 22.5895C38.9915 22.4162 39.1847 22.169 39.3153 21.848C39.4489 21.5241 39.5156 21.1364 39.5156 20.6847C39.5156 20.2443 39.4503 19.8565 39.3196 19.5213C39.1889 19.1861 38.9972 18.9247 38.7443 18.7372C38.4915 18.5469 38.179 18.4517 37.8068 18.4517C37.4233 18.4517 37.1037 18.5511 36.848 18.75C36.5923 18.946 36.3991 19.2131 36.2685 19.5511C36.1406 19.8892 36.0767 20.267 36.0767 20.6847C36.0767 21.1136 36.142 21.4901 36.2727 21.8139C36.4034 22.1378 36.5966 22.3906 36.8523 22.5724C37.1108 22.7543 37.429 22.8452 37.8068 22.8452ZM42.4815 24V17.4545H43.7131V18.4943H43.7812C43.9006 18.142 44.1108 17.8651 44.4119 17.6634C44.7159 17.4588 45.0597 17.3565 45.4432 17.3565C45.5227 17.3565 45.6165 17.3594 45.7244 17.3651C45.8352 17.3707 45.9219 17.3778 45.9844 17.3864V18.6051C45.9332 18.5909 45.8423 18.5753 45.7116 18.5582C45.581 18.5384 45.4503 18.5284 45.3196 18.5284C45.0185 18.5284 44.75 18.5923 44.5142 18.7202C44.2813 18.8452 44.0966 19.0199 43.9602 19.2443C43.8239 19.4659 43.7557 19.7187 43.7557 20.0028V24H42.4815ZM49.6097 24.1321C48.9961 24.1321 48.4606 23.9915 48.0032 23.7102C47.5458 23.429 47.1907 23.0355 46.9379 22.5298C46.685 22.0241 46.5586 21.4332 46.5586 20.7571C46.5586 20.0781 46.685 19.4844 46.9379 18.9759C47.1907 18.4673 47.5458 18.0724 48.0032 17.7912C48.4606 17.5099 48.9961 17.3693 49.6097 17.3693C50.2234 17.3693 50.7589 17.5099 51.2163 17.7912C51.6737 18.0724 52.0288 18.4673 52.2816 18.9759C52.5344 19.4844 52.6609 20.0781 52.6609 20.7571C52.6609 21.4332 52.5344 22.0241 52.2816 22.5298C52.0288 23.0355 51.6737 23.429 51.2163 23.7102C50.7589 23.9915 50.2234 24.1321 49.6097 24.1321ZM49.614 23.0625C50.0117 23.0625 50.3413 22.9574 50.6026 22.7472C50.864 22.5369 51.0572 22.2571 51.1822 21.9077C51.31 21.5582 51.3739 21.1733 51.3739 20.7528C51.3739 20.3352 51.31 19.9517 51.1822 19.6023C51.0572 19.25 50.864 18.9673 50.6026 18.7543C50.3413 18.5412 50.0117 18.4347 49.614 18.4347C49.2134 18.4347 48.881 18.5412 48.6168 18.7543C48.3555 18.9673 48.1609 19.25 48.033 19.6023C47.908 19.9517 47.8455 20.3352 47.8455 20.7528C47.8455 21.1733 47.908 21.5582 48.033 21.9077C48.1609 22.2571 48.3555 22.5369 48.6168 22.7472C48.881 22.9574 49.2134 23.0625 49.614 23.0625ZM58.2294 21.2855V17.4545H59.5078V24H58.255V22.8665H58.1868C58.0362 23.2159 57.7947 23.5071 57.4624 23.7401C57.1328 23.9702 56.7223 24.0852 56.2308 24.0852C55.8104 24.0852 55.4382 23.9929 55.1143 23.8082C54.7933 23.6207 54.5405 23.3438 54.3558 22.9773C54.174 22.6108 54.0831 22.1577 54.0831 21.6179V17.4545H55.3572V21.4645C55.3572 21.9105 55.4808 22.2656 55.728 22.5298C55.9751 22.794 56.2962 22.9261 56.6911 22.9261C56.9297 22.9261 57.1669 22.8665 57.4027 22.7472C57.6413 22.6278 57.8388 22.4474 57.995 22.206C58.1541 21.9645 58.2322 21.6577 58.2294 21.2855ZM61.2198 26.4545V17.4545H62.4641V18.5156H62.5707C62.6445 18.3793 62.7511 18.2216 62.8903 18.0426C63.0295 17.8636 63.2227 17.7074 63.4698 17.5739C63.717 17.4375 64.0437 17.3693 64.4499 17.3693C64.9783 17.3693 65.4499 17.5028 65.8647 17.7699C66.2795 18.0369 66.6048 18.4219 66.8406 18.9247C67.0792 19.4276 67.1985 20.0327 67.1985 20.7401C67.1985 21.4474 67.0806 22.054 66.8448 22.5597C66.609 23.0625 66.2852 23.4503 65.8732 23.723C65.4613 23.9929 64.9911 24.1278 64.4627 24.1278C64.065 24.1278 63.7397 24.0611 63.4869 23.9276C63.2369 23.794 63.0408 23.6378 62.8988 23.4588C62.7567 23.2798 62.6474 23.1207 62.5707 22.9815H62.494V26.4545H61.2198ZM62.4684 20.7273C62.4684 21.1875 62.5352 21.5909 62.6687 21.9375C62.8022 22.2841 62.9954 22.5554 63.2482 22.7514C63.5011 22.9446 63.8107 23.0412 64.1772 23.0412C64.5579 23.0412 64.8761 22.9403 65.1317 22.7386C65.3874 22.5341 65.5806 22.2571 65.7113 21.9077C65.8448 21.5582 65.9116 21.1648 65.9116 20.7273C65.9116 20.2955 65.8462 19.9077 65.7156 19.5639C65.5877 19.2202 65.3945 18.9489 65.136 18.75C64.8803 18.5511 64.5607 18.4517 64.1772 18.4517C63.8079 18.4517 63.4954 18.5469 63.2397 18.7372C62.9869 18.9276 62.7951 19.1932 62.6644 19.5341C62.5337 19.875 62.4684 20.2727 62.4684 20.7273ZM73.076 20.1136V24H71.8018V17.4545H73.0249V18.5199H73.1058C73.2564 18.1733 73.4922 17.8949 73.8132 17.6847C74.1371 17.4744 74.5447 17.3693 75.0362 17.3693C75.4822 17.3693 75.8729 17.4631 76.2081 17.6506C76.5433 17.8352 76.8033 18.1108 76.9879 18.4773C77.1726 18.8437 77.2649 19.2969 77.2649 19.8366V24H75.9908V19.9901C75.9908 19.5156 75.8672 19.1449 75.62 18.8778C75.3729 18.608 75.0334 18.473 74.6016 18.473C74.3061 18.473 74.0433 18.5369 73.8132 18.6648C73.5859 18.7926 73.4055 18.9801 73.272 19.2273C73.1413 19.4716 73.076 19.767 73.076 20.1136ZM80.8786 24.1449C80.4638 24.1449 80.0888 24.0682 79.7536 23.9148C79.4183 23.7585 79.1527 23.5327 78.9567 23.2372C78.7635 22.9418 78.6669 22.5795 78.6669 22.1506C78.6669 21.7812 78.7379 21.4773 78.88 21.2386C79.022 21 79.2138 20.8111 79.4553 20.6719C79.6967 20.5327 79.9666 20.4276 80.2649 20.3565C80.5632 20.2855 80.8672 20.2315 81.1768 20.1946C81.5689 20.1491 81.8871 20.1122 82.1314 20.0838C82.3757 20.0526 82.5533 20.0028 82.6641 19.9347C82.7749 19.8665 82.8303 19.7557 82.8303 19.6023V19.5724C82.8303 19.2003 82.7251 18.9119 82.5149 18.7074C82.3075 18.5028 81.9979 18.4006 81.5859 18.4006C81.157 18.4006 80.8189 18.4957 80.5717 18.6861C80.3274 18.8736 80.1584 19.0824 80.0646 19.3125L78.8672 19.0398C79.0092 18.642 79.2166 18.321 79.4893 18.0767C79.7649 17.8295 80.0817 17.6506 80.4396 17.5398C80.7976 17.4261 81.174 17.3693 81.5689 17.3693C81.8303 17.3693 82.1072 17.4006 82.3999 17.4631C82.6953 17.5227 82.9709 17.6335 83.2266 17.7955C83.4851 17.9574 83.6967 18.1889 83.8615 18.4901C84.0263 18.7884 84.1087 19.1761 84.1087 19.6534V24H82.8643V23.1051H82.8132C82.7308 23.2699 82.6072 23.4318 82.4425 23.5909C82.2777 23.75 82.0661 23.8821 81.8075 23.9872C81.549 24.0923 81.2393 24.1449 80.8786 24.1449ZM81.1555 23.1222C81.5078 23.1222 81.8089 23.0526 82.0589 22.9134C82.3118 22.7741 82.5036 22.5923 82.6342 22.3679C82.7678 22.1406 82.8345 21.8977 82.8345 21.6392V20.7955C82.7891 20.8409 82.701 20.8835 82.5703 20.9233C82.4425 20.9602 82.2962 20.9929 82.1314 21.0213C81.9666 21.0469 81.8061 21.071 81.6499 21.0938C81.4936 21.1136 81.3629 21.1307 81.2578 21.1449C81.0107 21.1761 80.7848 21.2287 80.5803 21.3026C80.3786 21.3764 80.2166 21.483 80.0945 21.6222C79.9751 21.7585 79.9155 21.9403 79.9155 22.1676C79.9155 22.483 80.032 22.7216 80.2649 22.8835C80.4979 23.0426 80.7947 23.1222 81.1555 23.1222ZM85.8058 24V17.4545H87.0288V18.5199H87.1097C87.2461 18.1591 87.4691 17.8778 87.7788 17.6761C88.0884 17.4716 88.4592 17.3693 88.891 17.3693C89.3285 17.3693 89.695 17.4716 89.9904 17.6761C90.2887 17.8807 90.5089 18.1619 90.6509 18.5199H90.7191C90.8754 18.1705 91.1239 17.892 91.4648 17.6847C91.8058 17.4744 92.212 17.3693 92.6836 17.3693C93.2773 17.3693 93.7617 17.5554 94.1367 17.9276C94.5146 18.2997 94.7035 18.8608 94.7035 19.6108V24H93.4293V19.7301C93.4293 19.2869 93.3086 18.9659 93.0671 18.767C92.8256 18.5682 92.5373 18.4688 92.2021 18.4688C91.7873 18.4688 91.4648 18.5966 91.2347 18.8523C91.0046 19.1051 90.8896 19.4304 90.8896 19.8281V24H89.6197V19.6491C89.6197 19.294 89.5089 19.0085 89.2873 18.7926C89.0657 18.5767 88.7773 18.4688 88.4222 18.4688C88.1808 18.4688 87.9577 18.5327 87.7532 18.6605C87.5515 18.7855 87.3881 18.9602 87.2631 19.1847C87.141 19.4091 87.0799 19.669 87.0799 19.9645V24H85.8058ZM99.2322 24.1321C98.5874 24.1321 98.032 23.9943 97.5661 23.7188C97.103 23.4403 96.745 23.0497 96.4922 22.5469C96.2422 22.0412 96.1172 21.4489 96.1172 20.7699C96.1172 20.0994 96.2422 19.5085 96.4922 18.9972C96.745 18.4858 97.0973 18.0866 97.549 17.7997C98.0036 17.5128 98.5348 17.3693 99.1428 17.3693C99.5121 17.3693 99.87 17.4304 100.217 17.5526C100.563 17.6747 100.874 17.8665 101.15 18.1278C101.425 18.3892 101.643 18.7287 101.802 19.1463C101.961 19.5611 102.04 20.0653 102.04 20.6591V21.1108H96.8374V20.1562H100.792C100.792 19.821 100.724 19.5241 100.587 19.2656C100.451 19.0043 100.259 18.7983 100.012 18.6477C99.7678 18.4972 99.4808 18.4219 99.1513 18.4219C98.7933 18.4219 98.4808 18.5099 98.2138 18.6861C97.9496 18.8594 97.745 19.0866 97.6001 19.3679C97.4581 19.6463 97.3871 19.9489 97.3871 20.2756V21.0213C97.3871 21.4588 97.4638 21.831 97.6172 22.1378C97.7734 22.4446 97.9908 22.679 98.2692 22.8409C98.5476 23 98.8729 23.0795 99.245 23.0795C99.4865 23.0795 99.7067 23.0455 99.9055 22.9773C100.104 22.9062 100.276 22.8011 100.421 22.6619C100.566 22.5227 100.677 22.3509 100.754 22.1463L101.96 22.3636C101.863 22.7187 101.69 23.0298 101.44 23.2969C101.192 23.5611 100.881 23.767 100.506 23.9148C100.134 24.0597 99.7095 24.1321 99.2322 24.1321Z" fill="#191B23"/>
<path d="M143 0V40H145V0H143Z" fill="#E0E1E9" mask="url(#path-7-inside-3_764_60103)"/>
</svg>

<svg xmlns="http://www.w3.org/2000/svg" width="144" height="80" fill="none"><mask id="a" fill="#fff"><path d="M72 40h72v40H72V40Z"/></mask><path fill="#F4F5F9" d="M72 40h72v40H72V40Z"/><path fill="#191B23" d="M84.528 56.406v-1.133h6.755v1.133H88.56V64h-1.313v-7.594h-2.719ZM92.775 64v-8.727h1.317v3.792h4.35v-3.792h1.322V64h-1.321v-3.805h-4.351V64h-1.317Z"/><path fill="#E0E1E9" d="M144 80v1h1v-1h-1Zm-1-40v40h2V40h-2Zm1 39H72v2h72v-2Z" mask="url(#a)"/><mask id="b" fill="#fff"><path d="M0 40h72v40H0V40Z"/></mask><path fill="#F4F5F9" d="M0 40h72v40H0V40Z"/><path fill="#191B23" d="M12.528 56.406v-1.133h6.755v1.133H16.56V64h-1.313v-7.594h-2.719ZM20.775 64v-8.727h1.317v3.792h4.35v-3.792h1.322V64h-1.321v-3.805h-4.351V64h-1.317Z"/><path fill="#E0E1E9" d="M72 79H0v2h72v-2Z" mask="url(#b)"/><mask id="c" fill="#fff"><path d="M0 0h144v40H0V0Z"/></mask><path fill="#F4F5F9" d="M0 0h144v40H0V0Z"/><path fill="#191B23" d="M20.207 18.11h-1.33a2.032 2.032 0 0 0-.796-1.299 2.202 2.202 0 0 0-.678-.34 2.645 2.645 0 0 0-.788-.116c-.503 0-.953.127-1.35.38-.396.252-.708.623-.938 1.112-.228.488-.341 1.085-.341 1.79 0 .71.113 1.309.34 1.798.23.488.545.858.942 1.108.398.25.846.375 1.343.375.275 0 .537-.037.784-.111.25-.077.476-.19.677-.337a2.038 2.038 0 0 0 .805-1.283l1.33.005a3.559 3.559 0 0 1-.413 1.184 3.269 3.269 0 0 1-.78.93 3.525 3.525 0 0 1-1.082.6c-.406.142-.85.213-1.33.213-.755 0-1.429-.179-2.02-.537-.59-.36-1.056-.876-1.397-1.547-.338-.67-.507-1.47-.507-2.399 0-.931.17-1.731.51-2.399.342-.67.808-1.184 1.399-1.542.59-.361 1.262-.542 2.015-.542.463 0 .895.067 1.296.2.403.131.765.325 1.086.58.321.253.587.563.797.93.21.363.353.779.426 1.248Zm4.23 6.022c-.613 0-1.148-.14-1.606-.422a2.844 2.844 0 0 1-1.065-1.18c-.253-.506-.38-1.097-.38-1.773 0-.679.127-1.273.38-1.781a2.838 2.838 0 0 1 1.065-1.185c.458-.281.993-.422 1.607-.422s1.149.14 1.606.422c.458.281.813.676 1.066 1.185.253.508.379 1.102.379 1.781 0 .676-.126 1.267-.38 1.773-.252.505-.607.899-1.065 1.18-.457.281-.992.422-1.606.422Zm.005-1.07c.398 0 .727-.105.989-.315.261-.21.454-.49.58-.84a3.34 3.34 0 0 0 .191-1.154c0-.418-.064-.801-.192-1.15a1.874 1.874 0 0 0-.58-.849c-.26-.213-.59-.32-.988-.32-.4 0-.733.107-.997.32a1.903 1.903 0 0 0-.584.848c-.125.35-.187.733-.187 1.15 0 .421.062.806.187 1.156.128.35.323.629.584.84.264.21.596.314.997.314Zm5.743-7.79V24h-1.274v-8.727h1.274Zm7.635 11.319c-.52 0-.968-.068-1.343-.205a2.6 2.6 0 0 1-.912-.54 2.274 2.274 0 0 1-.528-.738l1.095-.452c.077.125.18.257.307.397.13.142.307.262.528.362.225.1.513.149.865.149.483 0 .883-.118 1.198-.354.315-.233.473-.605.473-1.116v-1.287h-.081c-.077.139-.188.294-.332.464-.143.17-.339.319-.589.444-.25.125-.575.187-.975.187-.518 0-.983-.12-1.398-.362-.412-.244-.739-.604-.98-1.078-.239-.478-.358-1.064-.358-1.76s.118-1.293.354-1.79c.238-.497.565-.878.98-1.142.414-.267.884-.4 1.41-.4.406 0 .735.067.985.204.25.133.444.29.583.469.142.179.252.336.328.473h.094v-1.061h1.249v6.69c0 .562-.131 1.024-.392 1.385-.262.36-.615.628-1.061.801-.444.173-.944.26-1.5.26Zm-.013-3.746c.366 0 .676-.085.929-.255.256-.174.449-.421.58-.742.133-.324.2-.712.2-1.163 0-.44-.066-.828-.196-1.164a1.729 1.729 0 0 0-.576-.784c-.252-.19-.565-.285-.937-.285-.384 0-.703.1-.959.298a1.798 1.798 0 0 0-.58.801 3.183 3.183 0 0 0-.191 1.134c0 .429.065.805.196 1.129.13.324.324.577.58.758.258.182.576.273.954.273ZM42.48 24v-6.546h1.232v1.04h.068c.12-.352.33-.629.63-.83a1.805 1.805 0 0 1 1.032-.308 5.432 5.432 0 0 1 .541.03v1.22a2.299 2.299 0 0 0-.272-.048c-.131-.02-.262-.03-.392-.03-.301 0-.57.064-.806.192a1.425 1.425 0 0 0-.758 1.283V24H42.48Zm7.129.132c-.614 0-1.15-.14-1.607-.422a2.844 2.844 0 0 1-1.065-1.18c-.253-.506-.38-1.097-.38-1.773 0-.679.127-1.273.38-1.781a2.838 2.838 0 0 1 1.065-1.185c.458-.281.993-.422 1.607-.422.613 0 1.149.14 1.606.422.458.281.813.676 1.066 1.185.252.508.379 1.102.379 1.781 0 .676-.127 1.267-.38 1.773-.252.505-.607.899-1.065 1.18-.457.281-.993.422-1.606.422Zm.004-1.07c.398 0 .727-.105.989-.315.261-.21.454-.49.58-.84a3.34 3.34 0 0 0 .19-1.154c0-.418-.063-.801-.19-1.15a1.874 1.874 0 0 0-.58-.849c-.262-.213-.591-.32-.989-.32-.4 0-.733.107-.997.32a1.905 1.905 0 0 0-.584.848c-.125.35-.188.733-.188 1.15 0 .421.063.806.188 1.156.128.35.322.629.584.84.264.21.596.314.997.314Zm8.615-1.777v-3.83h1.279V24h-1.253v-1.134h-.068c-.15.35-.392.641-.725.874-.33.23-.74.345-1.231.345-.42 0-.793-.092-1.117-.277a1.946 1.946 0 0 1-.758-.83c-.182-.367-.273-.82-.273-1.36v-4.163h1.274v4.01c0 .445.124.8.371 1.065.247.264.568.396.963.396.239 0 .476-.06.712-.179a1.5 1.5 0 0 0 .592-.541c.16-.241.237-.548.234-.92Zm2.99 5.17v-9h1.245v1.06h.107a3.56 3.56 0 0 1 .32-.472c.139-.18.332-.336.579-.47.247-.136.574-.204.98-.204.528 0 1 .134 1.415.4.415.268.74.653.976 1.156.238.503.358 1.108.358 1.815 0 .707-.118 1.314-.354 1.82-.236.503-.56.89-.972 1.163-.412.27-.882.405-1.41.405-.398 0-.723-.067-.976-.2a1.847 1.847 0 0 1-.588-.47 3.544 3.544 0 0 1-.328-.476h-.077v3.473H61.22Zm1.25-5.728c0 .46.066.864.2 1.21.133.347.326.618.58.814.252.194.562.29.928.29.38 0 .7-.1.955-.302.255-.205.449-.482.58-.831.133-.35.2-.743.2-1.18 0-.433-.066-.82-.196-1.164a1.782 1.782 0 0 0-.58-.814c-.256-.199-.575-.298-.959-.298-.37 0-.682.095-.937.285-.253.19-.445.456-.576.797-.13.341-.196.739-.196 1.193Zm10.607-.613V24h-1.274v-6.546h1.223v1.066h.08c.151-.347.387-.625.708-.835.324-.21.732-.316 1.223-.316.446 0 .837.094 1.172.282.335.184.595.46.78.826.185.367.277.82.277 1.36V24H75.99v-4.01c0-.474-.124-.845-.371-1.112-.247-.27-.587-.405-1.018-.405-.296 0-.559.064-.789.192a1.378 1.378 0 0 0-.541.562c-.13.245-.196.54-.196.887Zm7.803 4.03c-.415 0-.79-.076-1.125-.23a1.895 1.895 0 0 1-.797-.677c-.194-.295-.29-.657-.29-1.086 0-.37.07-.674.213-.912.142-.239.334-.428.575-.567.242-.14.512-.244.81-.316a8.05 8.05 0 0 1 .912-.161l.954-.111c.245-.031.422-.081.533-.15.11-.068.166-.178.166-.332v-.03c0-.372-.105-.66-.315-.865-.207-.204-.517-.306-.93-.306-.428 0-.766.095-1.013.285a1.528 1.528 0 0 0-.507.627l-1.198-.273c.142-.398.35-.719.622-.963.276-.248.593-.426.95-.537.359-.114.735-.17 1.13-.17.261 0 .538.03.83.093.296.06.572.17.828.332.258.162.47.394.635.695.164.298.247.686.247 1.163V24h-1.245v-.895h-.05a1.814 1.814 0 0 1-.371.486c-.165.159-.377.291-.635.396a2.463 2.463 0 0 1-.93.158Zm.276-1.022c.353 0 .654-.07.904-.209.253-.139.445-.32.575-.545.134-.227.2-.47.2-.729v-.843a.665.665 0 0 1-.264.127 4.11 4.11 0 0 1-.439.098c-.164.026-.325.05-.481.073l-.392.05a3.153 3.153 0 0 0-.678.159c-.201.073-.363.18-.486.32-.119.136-.178.317-.178.545 0 .315.116.554.349.716.233.159.53.238.89.238Zm4.65.878v-6.546h1.224v1.066h.08c.137-.36.36-.642.67-.844.31-.204.68-.307 1.112-.307.438 0 .804.103 1.1.307.298.205.518.486.66.844h.068c.156-.35.405-.628.746-.835.34-.21.747-.316 1.219-.316.593 0 1.078.186 1.453.559.378.372.567.933.567 1.683V24h-1.275v-4.27c0-.443-.12-.764-.362-.963a1.318 1.318 0 0 0-.865-.298c-.415 0-.737.128-.967.383-.23.253-.345.578-.345.976V24h-1.27v-4.35c0-.356-.111-.641-.333-.857-.221-.216-.51-.324-.865-.324-.241 0-.464.064-.669.191-.201.125-.365.3-.49.525a1.606 1.606 0 0 0-.183.78V24h-1.274Zm13.427.132c-.645 0-1.2-.138-1.666-.413a2.804 2.804 0 0 1-1.074-1.172c-.25-.506-.375-1.098-.375-1.777 0-.67.125-1.261.375-1.773.253-.511.605-.91 1.057-1.197.455-.287.986-.43 1.594-.43.37 0 .727.06 1.074.183.346.122.657.313.933.575.275.261.493.6.652 1.018.159.415.238.92.238 1.513v.452h-5.203v-.955h3.955c0-.335-.068-.632-.205-.89a1.545 1.545 0 0 0-.575-.618 1.608 1.608 0 0 0-.86-.226c-.359 0-.671.088-.938.264-.264.173-.469.4-.614.682a1.969 1.969 0 0 0-.213.908v.745c0 .438.077.81.23 1.117.156.307.374.541.652.703.279.159.604.238.976.238.242 0 .462-.034.66-.102a1.373 1.373 0 0 0 .849-.831l1.206.218c-.097.355-.27.666-.52.933a2.53 2.53 0 0 1-.934.618 3.49 3.49 0 0 1-1.274.217Z"/><path fill="#E0E1E9" d="M143 0v40h2V0h-2Z" mask="url(#c)"/></svg>
